X:1
T:Lydia (Phillips), CM
T:Lydia (Phillips), CM
T:Thomas Phillips (1735-1807)
T:Public Domain Courtesy of the Cyber Hymnal™
C:Thomas Phillips (1735-1807)
Z:Public Domain
Z:Courtesy of the Cyber Hymnal™
%%score ( 1 2 ) ( 3 4 )
L:1/8
Q:1/4=115
M:4/4
K:D
V:1 treble 
V:2 treble 
V:3 bass 
V:4 bass 
V:1
 [DA]4 [DA]2 [Fd]2 | [DF-]3 [CE] [DF]2 [CA]2 | D4 ([EG]2 [DF]2) | [CE]8 | %4
 [DA]4 ([GB][FA])([EG][DF]) | ([CE]3 [DF] [EG]2) [CA]2 | [DF]8 | [Fd]4 [Dd]2 [Fd]2 | %8
 [Ec]2 [CB]2 A2 G2 | F3 (z E D2) [CE]2 | [DF]2 [Fd]2 [Ec]2 [DB]2 x2 |!<(! A6!<)! [Gc]2 x4 | %12
 d2 A2 [DA]2 [=CF]2 |!>(! G2 E2 E2 C2 | [A,D]8!>)! |] %15
V:2
 x8 | x8 | x8 | x8 | x8 | x8 | x8 | x8 | x4 EDDC | D2 A,4 x3 | x10 | C2 E2 D2 x6 | F4 x4 | %13
 B,4 A,4 | x8 |] %15
V:3
 [D,F,]4 F,2 A,2 | [D,A,]6 [F,A,]2 | [B,,F,]4 A,4 | A,8 | (A,2 D2) C2 B,2 | (E,2 A,4) [A,,A,]2 | %6
 (A,2 D2 [A,,A,]2 F,2) | [D,A,]4 [F,A,]2 [D,A,]2 | A,6 [E,A,]2 | (A,3 G, F,2) [A,,A,]2 x | %10
 A,6 z2 ^G,2 | A,6 G,2 F,2 [E,A,]2 | A,2 D2 F,2 A,2 | E,2 G,2 G,2 E,2 | [D,F,]8 |] %15
V:4
 x4 D,4 | x8 | x4 C,2 D,2 | (A,,2 B,,2 A,,2 G,,2) | F,,4 G,,4 | A,,6 x2 | D,4 x4 | x8 | %8
 A,,2 G,2 F,2 x2 | D,6 x3 | D,2 B,,2 E,4 x2 | A,2 x10 | B,,8 | G,,4 A,,4 | x8 |] %15

